Numix/16/status/indicator-keyboard-Lo-2.svg

<?xml version="1.0" encoding="UTF-8" standalone="no"?>
<svg
   xmlns:dc="http://purl.org/dc/elements/1.1/"
   xmlns:cc="http://creativecommons.org/ns#"
   xmlns:rdf="http://www.w3.org/1999/02/22-rdf-syntax-ns#"
   xmlns:svg="http://www.w3.org/2000/svg"
   xmlns="http://www.w3.org/2000/svg"
   xmlns:sodipodi="http://sodipodi.sourceforge.net/DTD/sodipodi-0.dtd"
   xmlns:inkscape="http://www.inkscape.org/namespaces/inkscape"
   viewBox="0 0 16 16"
   id="svg2"
   version="1.1"
   inkscape:version="0.91 r13725"
   sodipodi:docname="indicator-keyboard-Lo-2.svg">
  <metadata
     id="metadata14">
    <rdf:RDF>
      <cc:Work
         rdf:about="">
        <dc:format>image/svg+xml</dc:format>
        <dc:type
           rdf:resource="http://purl.org/dc/dcmitype/StillImage" />
      </cc:Work>
    </rdf:RDF>
  </metadata>
  <defs
     id="defs12" />
  <sodipodi:namedview
     pagecolor="#ffffff"
     bordercolor="#666666"
     borderopacity="1"
     objecttolerance="10"
     gridtolerance="10"
     guidetolerance="10"
     inkscape:pageopacity="0"
     inkscape:pageshadow="2"
     inkscape:window-width="640"
     inkscape:window-height="480"
     id="namedview10"
     showgrid="false"
     inkscape:zoom="14.75"
     inkscape:cx="8"
     inkscape:cy="8"
     inkscape:window-x="65"
     inkscape:window-y="24"
     inkscape:window-maximized="0"
     inkscape:current-layer="svg2" />
  <path
     style="fill:#ececec;fill-opacity:1"
     d="M 1.5996094 0 C 0.71320937 2.9605947e-16 0 0.71320937 0 1.5996094 L 0 14.400391 C 2.9605947e-16 15.286791 0.71320937 16 1.5996094 16 L 14.400391 16 C 15.286791 16 16 15.286791 16 14.400391 L 16 1.5996094 C 16 0.71320937 15.286791 0 14.400391 0 L 1.5996094 0 z M 2.1230469 4.859375 L 2.734375 4.859375 L 2.734375 10.564453 L 5.6699219 10.564453 L 5.6699219 11.095703 L 2.1230469 11.095703 L 2.1230469 4.859375 z M 8.4492188 6.3359375 C 8.7612187 6.3359375 9.0466875 6.395625 9.3046875 6.515625 C 9.5626875 6.629625 9.7847031 6.7937656 9.9707031 7.0097656 C 10.162703 7.2197656 10.310109 7.4753906 10.412109 7.7753906 C 10.520109 8.0753906 10.574219 8.4074375 10.574219 8.7734375 C 10.574219 9.1394375 10.520109 9.4734375 10.412109 9.7734375 C 10.310109 10.073438 10.162703 10.327109 9.9707031 10.537109 C 9.7847031 10.747109 9.5626875 10.913203 9.3046875 11.033203 C 9.0466875 11.147203 8.7612187 11.203125 8.4492188 11.203125 C 8.1372188 11.203125 7.85175 11.147203 7.59375 11.033203 C 7.33575 10.913203 7.1119219 10.747109 6.9199219 10.537109 C 6.7339219 10.327109 6.5865156 10.073438 6.4785156 9.7734375 C 6.3765156 9.4734375 6.3261719 9.1394375 6.3261719 8.7734375 C 6.3261719 8.4074375 6.3765156 8.0753906 6.4785156 7.7753906 C 6.5865156 7.4753906 6.7339219 7.2197656 6.9199219 7.0097656 C 7.1119219 6.7937656 7.33575 6.629625 7.59375 6.515625 C 7.85175 6.395625 8.1372188 6.3359375 8.4492188 6.3359375 z M 8.4492188 6.8652344 C 7.9872188 6.8652344 7.6215625 7.0406719 7.3515625 7.3886719 C 7.0815625 7.7306719 6.9472656 8.1914375 6.9472656 8.7734375 C 6.9472656 9.3554375 7.0815625 9.818156 7.3515625 10.160156 C 7.6215625 10.502156 7.9872188 10.673828 8.4492188 10.673828 C 8.9112188 10.673828 9.276875 10.502156 9.546875 10.160156 C 9.816875 9.818156 9.953125 9.3554375 9.953125 8.7734375 C 9.953125 8.1914375 9.816875 7.7306719 9.546875 7.3886719 C 9.276875 7.0406719 8.9112188 6.8652344 8.4492188 6.8652344 z M 12.548828 8.7539062 C 12.942728 8.7539062 13.2386 8.851875 13.4375 9.046875 C 13.636399 9.237975 13.736328 9.5044563 13.736328 9.8476562 C 13.736328 9.9997563 13.708897 10.14475 13.654297 10.28125 C 13.599697 10.41385 13.52524 10.543169 13.431641 10.667969 C 13.341941 10.792769 13.240047 10.912297 13.123047 11.029297 C 13.006047 11.146297 12.886525 11.263859 12.765625 11.380859 C 12.664225 11.478359 12.564297 11.578288 12.466797 11.679688 C 12.373197 11.777188 12.286984 11.877116 12.208984 11.978516 C 12.134884 12.076016 12.076097 12.172031 12.029297 12.269531 C 11.986397 12.363131 11.964844 12.457181 11.964844 12.550781 L 11.964844 12.5625 L 13.876953 12.5625 L 13.876953 12.896484 L 11.542969 12.896484 C 11.542969 12.888684 11.541043 12.874969 11.537109 12.855469 L 11.537109 12.755859 C 11.537109 12.572559 11.570419 12.402094 11.636719 12.246094 C 11.703019 12.086194 11.787272 11.937275 11.888672 11.796875 C 11.993972 11.656475 12.107622 11.525197 12.232422 11.404297 C 12.361122 11.283397 12.484562 11.165834 12.601562 11.052734 C 12.699062 10.959134 12.791153 10.869003 12.876953 10.783203 C 12.966653 10.693503 13.045028 10.603366 13.111328 10.509766 C 13.177628 10.416166 13.228578 10.316238 13.267578 10.210938 C 13.306578 10.105638 13.326172 9.9900344 13.326172 9.8652344 C 13.326172 9.5922344 13.253669 9.39825 13.105469 9.28125 C 12.961169 9.16035 12.776988 9.0996094 12.554688 9.0996094 C 12.429887 9.0996094 12.318203 9.1152844 12.220703 9.1464844 C 12.123203 9.1776844 12.038944 9.2149125 11.964844 9.2578125 C 11.894644 9.2968125 11.833903 9.3379594 11.783203 9.3808594 C 11.732503 9.4237594 11.695275 9.4570688 11.671875 9.4804688 L 11.472656 9.2167969 C 11.496056 9.1894969 11.537203 9.1503094 11.595703 9.0996094 C 11.658103 9.0450094 11.734519 8.9921062 11.824219 8.9414062 C 11.917819 8.8907063 12.023631 8.8476 12.144531 8.8125 C 12.265431 8.7735 12.400628 8.7539063 12.548828 8.7539062 z "
     id="path4" />
</svg>

<svg xmlns="http://www.w3.org/2000/svg" viewBox="0 0 16 16">
 <path d="m 1.6 0 c -0.886 0 -1.6 0.713 -1.6 1.6 l 0 12.801 c 0 0.886 0.713 1.6 1.6 1.6 l 12.801 0 c 0.886 0 1.6 -0.713 1.6 -1.6 l 0 -12.801 c 0 -0.886 -0.713 -1.6 -1.6 -1.6 l -12.801 0 z m 0.523 4.859 l 0.611 0 l 0 5.705 l 2.936 0 l 0 0.531 l -3.547 0 l 0 -6.236 z m 6.326 1.477 c 0.312 0 0.597 0.06 0.855 0.18 c 0.258 0.114 0.48 0.278 0.666 0.494 c 0.192 0.21 0.339 0.466 0.441 0.766 c 0.108 0.3 0.162 0.632 0.162 0.998 c 0 0.366 -0.054 0.7 -0.162 1 c -0.102 0.3 -0.249 0.554 -0.441 0.764 c -0.186 0.21 -0.408 0.376 -0.666 0.496 c -0.258 0.114 -0.543 0.17 -0.855 0.17 c -0.312 0 -0.597 -0.056 -0.855 -0.17 c -0.258 -0.12 -0.482 -0.286 -0.674 -0.496 c -0.186 -0.21 -0.333 -0.464 -0.441 -0.764 c -0.102 -0.3 -0.152 -0.634 -0.152 -1 c 0 -0.366 0.05 -0.698 0.152 -0.998 c 0.108 -0.3 0.255 -0.556 0.441 -0.766 c 0.192 -0.216 0.416 -0.38 0.674 -0.494 c 0.258 -0.12 0.543 -0.18 0.855 -0.18 z m 0 0.529 c -0.462 0 -0.828 0.175 -1.098 0.523 c -0.27 0.342 -0.404 0.803 -0.404 1.385 c 0 0.582 0.134 1.045 0.404 1.387 c 0.27 0.342 0.636 0.514 1.098 0.514 c 0.462 0 0.828 -0.172 1.098 -0.514 c 0.27 -0.342 0.406 -0.805 0.406 -1.387 c 0 -0.582 -0.136 -1.043 -0.406 -1.385 c -0.27 -0.348 -0.636 -0.523 -1.098 -0.523 z m 4.1 1.889 c 0.394 0 0.69 0.098 0.889 0.293 c 0.199 0.191 0.299 0.458 0.299 0.801 c 0 0.152 -0.027 0.297 -0.082 0.434 c -0.055 0.133 -0.129 0.262 -0.223 0.387 c -0.09 0.125 -0.192 0.244 -0.309 0.361 c -0.117 0.117 -0.237 0.235 -0.357 0.352 c -0.101 0.098 -0.201 0.197 -0.299 0.299 c -0.094 0.098 -0.18 0.197 -0.258 0.299 c -0.074 0.097 -0.133 0.194 -0.18 0.291 c -0.043 0.094 -0.064 0.188 -0.064 0.281 l 0 0.012 l 1.912 0 l 0 0.334 l -2.334 0 c 0 -0.008 -0.002 -0.022 -0.006 -0.041 l 0 -0.1 c 0 -0.183 0.033 -0.354 0.1 -0.51 c 0.066 -0.16 0.151 -0.309 0.252 -0.449 c 0.105 -0.14 0.219 -0.272 0.344 -0.393 c 0.129 -0.121 0.252 -0.238 0.369 -0.352 c 0.098 -0.094 0.19 -0.184 0.275 -0.27 c 0.09 -0.09 0.168 -0.18 0.234 -0.273 c 0.066 -0.094 0.117 -0.194 0.156 -0.299 c 0.039 -0.105 0.059 -0.221 0.059 -0.346 c 0 -0.273 -0.073 -0.467 -0.221 -0.584 c -0.144 -0.121 -0.328 -0.182 -0.551 -0.182 c -0.125 0 -0.236 0.016 -0.334 0.047 c -0.098 0.031 -0.182 0.068 -0.256 0.111 c -0.07 0.039 -0.131 0.08 -0.182 0.123 c -0.051 0.043 -0.088 0.076 -0.111 0.1 l -0.199 -0.264 c 0.023 -0.027 0.065 -0.066 0.123 -0.117 c 0.062 -0.055 0.139 -0.108 0.229 -0.158 c 0.094 -0.051 0.199 -0.094 0.32 -0.129 c 0.121 -0.039 0.256 -0.059 0.404 -0.059 z" style="fill:#ececec;fill-opacity:1"/>
</svg>
